svg/black/bze.svg

<?xml version="1.0" encoding="UTF-8"?>
<svg width="32px" height="32px" viewBox="0 0 32 32" version="1.1" xmlns="http://www.w3.org/2000/svg" xmlns:xlink="http://www.w3.org/1999/xlink">
    <title>svg/black/bze</title>
    <g id="black/bze" stroke="none" stroke-width="1" fill="none" fill-rule="evenodd">
        <g id="Group" fill="#000000" fill-rule="nonzero">
            <path d="M16,-3.3553407e-15 C24.836556,-3.3553407e-15 32,7.163444 32,16 C32,24.836556 24.836556,32 16,32 C7.163444,32 0,24.836556 0,16 C0,7.163444 7.163444,-3.3553407e-15 16,-3.3553407e-15 Z M14.9596351,5.75 L11.3325385,5.75 L10.0305379,13.0914761 L14.6496139,13.0914761 L9.16251638,18.0376212 L8,24.694717 C8,24.694717 12.3865601,24.8191037 16.1066883,24.694717 C19.8422796,24.570267 24.1977872,21.3661691 24.8333559,17.7421078 C25.7013774,12.842576 22.8957865,10.9450453 22.8957865,10.9450453 L20.3537641,13.4336662 C20.3537641,13.4336662 22.4927968,15.8134171 20.5242379,19.0797083 C18.5867317,22.2838695 12.1541073,21.6927792 12.1541073,21.6927792 L12.6500655,18.8775482 L21.7022806,10.0429249 L14.2001084,10.0429249 L14.9596351,5.75 Z M20.9272907,10.3384384 L12.3865601,18.7686782 L11.8130967,21.988356 C11.8130967,21.988356 13.7196134,22.1282594 15.2231405,21.988356 C16.7266676,21.832746 18.4161948,21.2106224 18.4161948,21.2106224 L13.9521293,24.4613969 L8.2635054,24.4613969 L9.37950598,18.1464913 L15.2851195,12.8270593 L10.2630538,12.8270593 L14.3241295,10.3384384 L20.9272907,10.3384384 Z" id="Combined-Shape"></path>
        </g>
    </g>
</svg>

<svg width="32" height="32" viewBox="0 0 32 32" xmlns="http://www.w3.org/2000/svg"><path d="M16 0c8.837 0 16 7.163 16 16s-7.163 16-16 16S0 24.837 0 16 7.163 0 16 0zm-1.04 5.75h-3.627l-1.302 7.341h4.619l-5.487 4.947L8 24.695s4.387.124 8.107 0c3.735-.125 8.09-3.329 8.726-6.953.868-4.9-1.937-6.797-1.937-6.797l-2.542 2.489s2.139 2.38.17 5.646c-1.937 3.204-8.37 2.613-8.37 2.613l.496-2.815 9.052-8.835H14.2l.76-4.293zm5.967 4.588l-8.54 8.43-.574 3.22s1.907.14 3.41 0c1.504-.155 3.193-.777 3.193-.777l-4.464 3.25H8.264l1.116-6.315 5.905-5.319h-5.022l4.061-2.489h6.603z" fill="#000" fill-rule="nonzero"/></svg>
